X:2
T:Chorus Jig, The
M:6/8
L:1/8
C:trad.
S:As played by Natalie MacMaster, Trad. Music from Cape Breton Island
Z:Transcribed by Jerome Colburn
R:jig
K:D
G|F2D DED|AFD ABd|F2D DED|A3 A2G|!
F2D DED|AFD DE=F|E2=c ccE|G3 GBA:|]!
F2d dcd|ABG FGE|D2d dcd|A3 A2G|!
F2d dcd|ABG FED|E2 =c cGE|G3 GBA|!
F2d dcd|ABG FGE|D2d dcd|A3 ABc|!
dBd =cAc|BGB AFD|E2 =c cGE|G3 Gag|]!
f2d dfd|afd dfa|f2d dfg|a3 a2g|!
f2d dfg|afd de=f|e2=c cef|1g3 gag:|2g3 g2e|]!
fdf ece|dcd AFD|F2d dAF|A3 ABc|!
dBd =cAc|BGB AFD|E2=c cGE|1G3 Gag:|2G3||
